src/images/svg/payment-methods/payment-visa.svg

<svg width="128" height="80" viewBox="0 0 128 80" fill="none" xmlns="http://www.w3.org/2000/svg">
<path d="M77.2719 26.0002C79.4037 25.9901 81.519 26.3777 83.5097 27.1434L83.448 27.12L82.502 32.9901L81.8772 32.6766C80.2339 31.9649 78.4563 31.6198 76.6672 31.665C73.9463 31.665 72.7068 32.7271 72.6867 34.0017C72.6665 35.2762 74.158 36.1057 76.5866 37.3701C80.6075 39.3022 82.4415 41.6388 82.4415 44.7341C82.4415 50.3583 77.6548 53.9999 70.3487 53.9999C67.695 54.0072 65.0633 53.5166 62.5892 52.5533L63.5969 46.4841L64.4938 46.9089C66.5291 47.9121 68.7776 48.4017 71.0441 48.3352C73.0494 48.3352 75.2161 47.5058 75.2161 45.685C75.2262 44.5015 74.2386 43.6113 71.5983 42.3165C68.958 41.0218 65.5015 38.847 65.5015 34.9525C65.5418 29.6824 70.389 26.0002 77.2719 26.0002ZM92.3375 28.7518C92.881 27.2393 94.396 26.3067 95.9855 26.5062H101.367L107 53.6053H100.54C100.54 53.6053 100.355 52.717 100.151 51.746L100.069 51.355C99.917 50.6372 99.767 49.9327 99.6839 49.5592H90.7755C90.5034 50.2571 89.3143 53.6053 89.3143 53.6053H81.9981L92.3375 28.7518ZM62.6093 26.4758L58.2559 53.5952H51.3026L55.656 26.4758H62.6093ZM32.3168 26.4859C33.8284 26.5466 35.0579 27.0524 35.4811 28.772L37.9198 41.2039C37.9086 41.1734 37.8973 41.143 37.8859 41.1126L37.9198 41.2241L38.6454 44.987L45.4577 26.496H52.8343L41.8299 53.5649H34.5036L28.319 30.0176C26.1771 28.758 23.733 27.7447 21 27.0423L21.0907 26.4859H32.3168ZM96.4692 33.8095C96.2734 34.3933 96.0019 35.1555 95.8052 35.7015L95.7138 35.9547C95.616 36.2248 95.5521 36.399 95.5521 36.399C95.5521 36.399 93.3553 42.4177 92.7809 43.9755H98.5552C98.435 43.3765 98.1062 41.7803 97.7766 40.185L97.6728 39.6824C97.2937 37.8482 96.9428 36.1563 96.9428 36.1563L96.4692 33.8095Z" fill="#1A1F71"/>
</svg>

<svg width="128" height="80" fill="none" xmlns="http://www.w3.org/2000/svg"><path d="M77.272 26c2.132-.01 4.247.378 6.238 1.143l-.062-.023-.946 5.87-.625-.313a12.325 12.325 0 0 0-5.21-1.012c-2.72 0-3.96 1.062-3.98 2.337-.02 1.274 1.471 2.104 3.9 3.368 4.02 1.932 5.855 4.269 5.855 7.364 0 5.624-4.787 9.266-12.093 9.266a21.224 21.224 0 0 1-7.76-1.447l1.008-6.069.897.425a13.893 13.893 0 0 0 6.55 1.426c2.005 0 4.172-.83 4.172-2.65.01-1.184-.977-2.074-3.618-3.369-2.64-1.294-6.097-3.469-6.097-7.364.04-5.27 4.888-8.952 11.77-8.952zm15.066 2.752a3.425 3.425 0 0 1 3.648-2.246h5.381l5.633 27.1h-6.46l-.389-1.86-.082-.391a228.31 228.31 0 0 0-.385-1.796h-8.909c-.272.698-1.46 4.046-1.46 4.046h-7.317l10.34-24.853zm-29.729-2.276-4.353 27.12h-6.953l4.353-27.12h6.953zm-30.292.01c1.511.06 2.74.566 3.164 2.286l2.439 12.432-.034-.091.034.111.725 3.763 6.813-18.491h7.376L41.83 53.565h-7.326l-6.185-23.547c-2.142-1.26-4.586-2.273-7.319-2.976l.09-.556h11.227zm64.152 7.323c-.196.584-.467 1.347-.664 1.893l-.091.253-.162.444s-2.197 6.019-2.771 7.576h5.774c-.12-.599-.449-2.195-.778-3.79l-.104-.503-.73-3.526-.474-2.346z" fill="#1A1F71"/></svg>
